X: 3
T: Minny Wow's Fancy, and Poggy's delight
%R: reel
B: Thomas Wilson, Harmony "Four New Country Dances" #3
F: https://archive.org/details/Wilson4NewCountryDances
Z: 2015 John Chambers <jc:trillian.mit.edu>
M: C|
L: 1/8
Q: "Allegro"
K: A
% - - - - - - - - - - - - - - - - - - - - - - - - - - - - -
V: 1 clef=treble middle=B
[|\
cAdB ecTBA | fdcB AGTFE |\
cAdB ecfd | ec TBA {A}G2z2 |\
cAdB ecTBA |
fdcB AGTFE |\
cAdB ecfd | ed TBG A2z2 |][|\
efga bgTfe | c'aTgf bgTfe |\
efga bgTfe |
c'agf edcB |\
cAdB ecTBA | fdcB AGTFE |\
cAdB ecfd | ed BG A2z2 |]
% - - - - - - - - - - - - - - - - - - - - - - - - - - - - -
V: 2 clef=bass middle=d
[|\
A2B2 c2d2 | B2d2 e2E2 |\
A2B2 c2d2 | c2d2 e2E2 | A2B2 c2d2 |
B2d2 e2E2 | A2B2 c2d2 | e2E2 A2A2 |][|\
e2E2 e2E2 | e2E2 e2E2 | e2E2 e2E2 |
e2E2 e2E2 | A2B2 c2d2 | B2d2 e2E2 |\
A2B2 c2d2 | e2E2 A2A,2 |]
% - - - - - - - - - - Dance description - - - - - - - - - -
%%text  SINGLE FIGURE (the tune played S.t through)
%%begintext align
%% Set and change sides, set and back again |: lead
%% down the middle up again and right and left with
%% top Couple .| .
%%endtext
%%text  DOUBLE FIGURE (each strain repeated)
%%begintext align
%% Hay contrary sides .| hay on your own sides .|
%% lead down the middle up again set to the top Couple
.| swing corners |:
%%endtext

%%sep 1 1 500
%%sep 1 1 500
